packages/foundations/assets/icons/functional/images/security/shield_check_12.svg

<svg width="12" height="12" viewBox="0 0 12 12" fill="none" xmlns="http://www.w3.org/2000/svg">
<g clip-path="url(#clip0_232_433)">
<path fill-rule="evenodd" clip-rule="evenodd" d="M6.00002 1.20001C6.06894 1.20001 6.13837 1.21621 6.20265 1.24861L9.4442 2.92201C9.53883 2.96941 9.60002 3.07801 9.60002 3.19801V4.80001C9.60002 7.49881 8.43774 9.51121 6.1142 10.7712C6.07871 10.7904 6.03911 10.8 6.00002 10.8C5.96094 10.8 5.92134 10.7904 5.88585 10.7712C3.56231 9.51121 2.40002 7.49881 2.40002 4.80001V3.19801C2.40002 3.07801 2.46122 2.96941 2.55585 2.92201L5.7974 1.24861C5.86168 1.21621 5.93111 1.20001 6.00002 1.20001ZM6.99696 4.37595L5.51545 5.75168L5.00309 5.27591C4.75046 5.04132 4.34212 5.04132 4.08949 5.27591C3.83687 5.5105 3.83687 5.88968 4.08949 6.12427L5.05865 7.02422C5.18464 7.14122 5.35004 7.20001 5.51545 7.20001C5.68085 7.20001 5.84625 7.14122 5.97224 7.02422L7.91055 5.22431C8.16318 4.98972 8.16318 4.61054 7.91055 4.37595C7.65793 4.14137 7.24959 4.14137 6.99696 4.37595Z" fill="#1A1C1F"/>
</g>
<defs>
<clipPath id="clip0_232_433">
<rect width="12" height="12" fill="white"/>
</clipPath>
</defs>
</svg>

<svg xmlns="http://www.w3.org/2000/svg" width="12" height="12" fill="none"><g clip-path="url(#a)"><path fill="#1A1C1F" fill-rule="evenodd" d="M6 1.2a.45.45 0 0 1 .203.049l3.241 1.673a.3.3 0 0 1 .156.276V4.8c0 2.699-1.162 4.711-3.486 5.971a.24.24 0 0 1-.228 0C3.562 9.511 2.4 7.5 2.4 4.8V3.198c0-.12.061-.229.156-.276l3.241-1.673A.45.45 0 0 1 6 1.2m.997 3.176L5.515 5.752l-.512-.476a.68.68 0 0 0-.914 0 .57.57 0 0 0 0 .848l.97.9a.67.67 0 0 0 .456.176.67.67 0 0 0 .457-.176l1.939-1.8a.57.57 0 0 0 0-.848.68.68 0 0 0-.914 0" clip-rule="evenodd"/></g><defs><clipPath id="a"><path fill="#fff" d="M0 0h12v12H0z"/></clipPath></defs></svg>
